icons/outline/brand-dropbox.svg

<!--
tags: [productivity, storage, cloud, file-sharing]
category: Brand
-->

<svg
  xmlns="http://www.w3.org/2000/svg"
  width="24"
  height="24"
  viewBox="0 0 24 24"
  fill="none"
  stroke="currentColor"
  stroke-width="2"
  stroke-linecap="round"
  stroke-linejoin="round"
>
  <path d="M7.5 10.625l-4.5 -2.813l4.5 -2.812l4.5 2.813m-4.5 2.812l4.5 -2.813m-4.5 2.813l-4.5 2.823l4.5 2.802m0 -5.625l4.5 2.823m0 -5.636l4.5 2.791l4.5 -2.812l-4.5 -2.791l-4.5 2.813zm-4.5 8.438l4.5 -2.802m-4.5 2.802v1.123l4.5 2.627l4.5 -2.627v-1.123m-4.5 -2.802l4.5 -2.823l4.5 2.823l-4.5 2.802m-4.5 -2.802l4.5 2.802" />
</svg>

<!--
tags: [productivity, storage, cloud, file-sharing]
category: Brand
-->

<svg xmlns="http://www.w3.org/2000/svg" 
  width="24" 
  height="24" 
  viewBox="0 0 24 24"
  fill="none"
  stroke="currentColor"
  stroke-width="2"
  stroke-linecap="round"
  stroke-linejoin="round"
>
  <path stroke="currentColor" stroke-linejoin="round" stroke-width="2" d="M7.5 10.625 3 7.812 7.5 5 12 7.813m-4.5 2.812L12 7.812m-4.5 2.813L3 13.448l4.5 2.802m0-5.625 4.5 2.823m0-5.636 4.5 2.791L21 7.791 16.5 5 12 7.813ZM7.5 16.25l4.5-2.802M7.5 16.25v1.123L12 20l4.5-2.627V16.25M12 13.448l4.5-2.823 4.5 2.823-4.5 2.802M12 13.448l4.5 2.802"/>
</svg>
